packages/design-assets/icons/12px/Bar Chart.svg

<svg width="12" height="12" xmlns="http://www.w3.org/2000/svg" xmlns:xlink="http://www.w3.org/1999/xlink"><defs><path d="M3 0h9v3H3V0zM0 0h2v12H0V0zm3 4h5v3H3V4zm0 4h3v3H3V8z" id="a"/></defs><use fill="#818F99" xlink:href="#a" fill-rule="evenodd"/></svg>

<?xml version="1.0" encoding="UTF-8"?>
<svg width="12px" height="12px" viewBox="0 0 12 12" version="1.1" xmlns="http://www.w3.org/2000/svg" xmlns:xlink="http://www.w3.org/1999/xlink">
    <!-- Generator: Sketch 54.1 (76490) - https://sketchapp.com -->
    <title>Icons/12px/Bar Chart</title>
    <desc>Created with Sketch.</desc>
    <defs>
        <path d="M3,0 L12,0 L12,3 L3,3 L3,0 Z M0,0 L2,0 L2,12 L0,12 L0,0 Z M3,4 L8,4 L8,7 L3,7 L3,4 Z M3,8 L6,8 L6,11 L3,11 L3,8 Z" id="path-1"></path>
    </defs>
    <g id="Icons/12px/Bar-Chart" stroke="none" stroke-width="1" fill="none" fill-rule="evenodd">
        <mask id="mask-2" fill="white">
            <use xlink:href="#path-1"></use>
        </mask>
        <use id="i-12-bar-chart" fill="#818F99" xlink:href="#path-1"></use>
    </g>
</svg>
